X: 524
T: Abbess, The
R: barndance
M: 4/4
K: Gmajor
DGA|"G"B4 "Am"B3 c|"Bm"d4 G4|"C"e3 e edcB|"Am"cBAG "D"d2 GF|
"Am"E2 c2 "D"A3 F|"Bm"D3 d "Em"BAGF|"C"E2 cB "D"AB/A/ GF|"C" G4- GDGA|
"G"B4 "Am"B3 c|"Bm"d4 GABd|"C"e3 e edcB|"Am"cBAG "D"d2 GF|
"Am"E2 c2 "D"A3 F|"Bm"D3 d "Em"BAGF|"C"E2 cB "D"AB/A/ GF|"C" G4- GABc||
"G"d2 dG "C"e3 d|"Am"cBAG "D"d3 c|"G"BAGF "C"EccB|"Am"BAAB "D"D2 GF|
"Am"E2 c2 "D"A3 F|"Bm"D3 d "Em"BAGF|"C"E2 cB "D"AB/A/ GF|"C" G4- GABc|
"G"d2 dG "C"e3 d|"Am"cBAe "D"ddef|"G"g2 fg "C"e2 dB|"Am"ABef "D"d3 c|
"G"BAGF "C"E2 c2|[M:3/2] "D"A3 F "Bm"D3 d "Em"BAGF|[M:4/4] "C"E2 cB "D"AB/A/ GF|"C"G8||

